public/assets/routes_avatar/otherDeductionVoucher.svg

<?xml version="1.0" encoding="UTF-8"?>
<svg width="60px" height="60px" viewBox="0 0 60 60" version="1.1" xmlns="http://www.w3.org/2000/svg" xmlns:xlink="http://www.w3.org/1999/xlink">
    <!-- Generator: Sketch 49.3 (51167) - http://www.bohemiancoding.com/sketch -->
    <title>进项管理-其他扣税凭证</title>
    <desc>Created with Sketch.</desc>
    <defs>
        <path d="M27.6900877,0.519639682 L3.1826104,0.519639682 C1.94395248,0.519639682 0.93587958,1.59249821 0.93587958,2.91079428 L0.93587958,22.1284506 C0.93587958,23.4467812 1.94398485,24.5196397 3.1826104,24.5196397 L27.6900553,24.5196397 C28.9286808,24.5196397 29.9358796,23.4467812 29.9358796,22.1284506 L29.9358796,2.91082875 C29.935912,1.59249821 28.9286808,0.519639682 27.6900553,0.519639682 L27.6900877,0.519639682 Z M28.1201116,22.1284851 C28.1201116,22.3810238 27.9268242,22.5863364 27.6900877,22.5863364 L3.1826104,22.5863364 C2.94496731,22.5863364 2.75167995,22.3810238 2.75167995,22.1284851 L2.75167995,2.91082875 C2.75167995,2.65829006 2.94496731,2.45297742 3.1826104,2.45297742 L27.6900553,2.45297742 C27.9267595,2.45297742 28.1200792,2.65829006 28.1200792,2.91082875 L28.1200792,22.1284851 L28.1201116,22.1284851 Z" id="path-1"></path>
        <path d="M18.934148,12.5633526 L22.5026973,12.5633526 C22.9881162,12.5633526 23.3808984,12.170132 23.3808984,11.6851515 C23.3808984,11.2001711 22.9880849,10.8069504 22.5026973,10.8069504 L18.9340854,10.8069504 C18.4486665,10.8069504 18.0558843,11.2001711 18.0558843,11.6851515 C18.0558843,12.1701007 18.4486978,12.5633526 18.9341167,12.5633526 L18.934148,12.5633526 Z M24.5224471,7.08350552 L18.934148,7.08350552 C18.4487291,7.08350552 18.0559156,7.47672616 18.0559156,7.96173794 C18.0559156,8.44671841 18.4487291,8.83993905 18.934148,8.83993905 L24.5224471,8.83993905 C25.007866,8.83993905 25.4006482,8.44671841 25.4006482,7.96173794 C25.4006482,7.47672616 25.0078974,7.08350552 24.5224471,7.08350552 Z M24.5224471,14.7880432 L18.934148,14.7880432 C18.4487291,14.7880432 18.0559156,15.1812638 18.0559156,15.6662756 C18.0559156,16.1512561 18.4487291,16.5444767 18.934148,16.5444767 L24.5224471,16.5444767 C25.007866,16.5444767 25.4006482,16.1512561 25.4006482,15.6662756 C25.4006482,15.1812638 25.0078974,14.7880432 24.5224471,14.7880432 Z M14.9024151,11.6474141 L14.903292,11.6474141 C15.3878654,11.6474141 15.7814931,11.2546006 15.7814931,10.7700273 C15.7814931,10.2850468 15.3887109,9.89138773 14.9041689,9.89094929 L12.8762453,9.88938342 L15.1468471,7.1847232 C15.4590497,6.81336207 15.4110089,6.25932685 15.0388022,5.94715551 C14.6665955,5.63582974 14.1134372,5.68471612 13.8020801,6.05520036 L11.1099781,9.26197165 L8.41787614,6.05520036 C8.10742726,5.68471612 7.55251515,5.63582974 7.18115403,5.94715551 C6.80897865,6.25932685 6.76093784,6.81339339 7.07310917,7.1847232 L9.34142477,9.88662749 L7.20006971,9.88496767 L7.19919282,9.88496767 C6.71461948,9.88496767 6.32099172,10.2777812 6.32099172,10.7623545 C6.32099172,11.247335 6.71380523,11.6409941 7.19834725,11.6414325 L10.17503,11.6437187 L10.1738712,12.8829775 L7.20006971,12.8806913 L7.19919282,12.8806913 C6.71461948,12.8806913 6.32099172,13.2734735 6.32099172,13.7580469 C6.32099172,14.2430273 6.71380523,14.6367177 7.19834725,14.6371249 L10.1721801,14.6394423 L10.1700192,16.9248259 C10.1691736,17.4098064 10.5619558,17.8034968 11.047406,17.8039039 L11.0482516,17.8039039 C11.532825,17.8039039 11.9256385,17.4110904 11.926484,16.9265484 L11.9286136,14.6408203 L14.9024151,14.6431065 L14.903292,14.6431065 C15.3878654,14.6431065 15.7814931,14.2503243 15.7814931,13.7657823 C15.7814931,13.2808018 15.3887109,12.8871114 14.9041689,12.8867043 L11.9302734,12.8843868 L11.9314635,11.6451593 L14.9024151,11.6474141 Z" id="path-2"></path>
    </defs>
    <g id="icon" stroke="none" stroke-width="1" fill="none" fill-rule="evenodd">
        <g id="进项管理-其他扣税凭证">
            <circle id="Oval-Copy" fill="#05DCAC" cx="30" cy="30" r="30"></circle>
            <g id="Group-20" transform="translate(13.000000, 17.000000)">
                <g id="Group-19" fill-rule="nonzero">
                    <g id="Shape">
                        <use fill="#FFFFFF" fill-rule="evenodd" xlink:href="#path-1"></use>
                        <path stroke="#05DCAC" stroke-width="0.1" d="M27.6900715,0.569639682 L3.1826104,0.569639682 C1.97228214,0.569639682 0.98587958,1.61944536 0.98587958,2.91079428 L0.98587958,22.1284506 C0.98587958,23.4198168 1.97229833,24.4696397 3.1826104,24.4696397 L27.6900553,24.4696397 C28.9001882,24.4696397 29.8858796,23.4200062 29.8858796,22.1284506 L29.8858796,2.91082752 C29.8859113,1.61928464 28.9001993,0.569639682 27.6900553,0.569639682 L27.6900715,0.569639682 Z M28.1700792,22.1284851 L28.1701116,22.1284851 C28.1701116,22.4078026 27.9553114,22.6363364 27.6900877,22.6363364 L3.1826104,22.6363364 C2.91663774,22.6363364 2.70167995,22.407967 2.70167995,22.1284851 L2.70167995,2.91082875 C2.70167995,2.63134684 2.91663774,2.40297742 3.1826104,2.40297742 L27.6900553,2.40297742 C27.9552572,2.40297742 28.1700792,2.63152261 28.1700792,2.91082875 L28.1700792,22.1284851 Z"></path>
                    </g>
                    <g id="Shape">
                        <use fill="#FFFFFF" fill-rule="evenodd" xlink:href="#path-2"></use>
                        <path stroke="#05DCAC" stroke-width="0.2" d="M18.9341167,12.4633526 L22.5026973,12.4633526 C22.9327286,12.4633526 23.2808984,12.1150627 23.2808984,11.6851515 C23.2808984,11.2552517 22.9327087,10.9069504 22.5026973,10.9069504 L18.9340854,10.9069504 C18.5040541,10.9069504 18.1558843,11.2552403 18.1558843,11.6851515 C18.1558843,12.1150357 18.5040897,12.4633526 18.9341167,12.4633526 Z M24.5224471,7.18350552 L18.934148,7.18350552 C18.5041054,7.18350552 18.1559156,7.53180681 18.1559156,7.96173794 C18.1559156,8.39164205 18.5041097,8.73993905 18.934148,8.73993905 L24.5224471,8.73993905 C24.9524784,8.73993905 25.3006482,8.39164913 25.3006482,7.96173794 C25.3006482,7.53178835 24.9525027,7.18350552 24.5224471,7.18350552 Z M24.5224471,14.8880432 L18.934148,14.8880432 C18.5041054,14.8880432 18.1559156,15.2363445 18.1559156,15.6662756 C18.1559156,16.0961797 18.5041097,16.4444767 18.934148,16.4444767 L24.5224471,16.4444767 C24.9524784,16.4444767 25.3006482,16.0961868 25.3006482,15.6662756 C25.3006482,15.236326 24.9525027,14.8880432 24.5224471,14.8880432 Z M14.9024531,11.5474141 L14.9024151,11.5474141 L14.9024531,11.5474141 Z M14.9024531,11.5474141 L14.903292,11.5474141 C15.3328209,11.5474141 15.6814931,11.1991883 15.6814931,10.7700273 C15.6814931,10.3401822 15.3333696,9.99133769 14.9040917,9.99094926 L12.8761681,9.98938339 L12.7996565,9.82508601 L15.0703029,7.12037266 C15.3470396,6.79119784 15.3042743,6.30032338 14.9746436,6.0238606 C14.6449322,5.74807929 14.1546879,5.79106241 13.8786692,6.11949736 L11.1865672,9.32626864 L11.033389,9.32626864 L8.34122849,6.1194276 C8.0661431,5.79114552 7.5742935,5.74806386 7.24541818,6.02377221 C6.91571399,6.30031978 6.87294647,6.79122807 7.14969758,7.12042533 L9.41801318,9.82232963 L9.34134726,9.98662746 L7.20006971,9.98496767 L7.19919282,9.98496767 C6.76966397,9.98496767 6.42099172,10.3331935 6.42099172,10.7623545 C6.42099172,11.1921925 6.76913946,11.5410441 7.19842405,11.5414325 L10.1751068,11.5437187 L10.2750299,11.6438122 L10.2738712,12.883071 L10.1737944,12.9829775 L7.20006971,12.9806913 L7.19919282,12.9806913 C6.76965689,12.9806913 6.42099172,13.3288929 6.42099172,13.7580469 C6.42099172,14.1878951 6.76914832,14.5367642 7.19842518,14.5371249 L10.172258,14.5394424 L10.27218,14.6395369 L10.270019,16.9250003 C10.2692698,17.354757 10.6173436,17.7035432 11.047406,17.7039039 L11.0482516,17.7039039 C11.4775054,17.7039039 11.8257346,17.3559149 11.8264841,16.9264552 L11.8286137,14.6407271 L11.9286905,14.5408203 L14.9024151,14.5431065 L14.903292,14.5431065 C15.3328237,14.5431065 15.6814931,14.1949092 15.6814931,13.7657823 C15.6814931,13.3359269 15.3333608,12.9870649 14.904091,12.9867042 L11.9301955,12.9843868 L11.8302735,12.8842908 L11.8314635,11.6450632 L11.9315394,11.5451593 L14.902491,11.5474142 L14.9024531,11.5474141 Z"></path>
                    </g>
                </g>
                <g id="Group-21" transform="translate(19.000000, 12.000000)">
                    <circle id="Oval-2" fill="#05DCAC" cx="7.5" cy="7.5" r="7.5"></circle>
                    <path d="M8,14 C4.6862915,14 2,11.3137085 2,8 C2,4.6862915 4.6862915,2 8,2 C11.3137085,2 14,4.6862915 14,8 C14,11.3137085 11.3137085,14 8,14 Z M8,12.7586207 C10.6281136,12.7586207 12.7586207,10.6281136 12.7586207,8 C12.7586207,5.37188636 10.6281136,3.24137931 8,3.24137931 C5.37188636,3.24137931 3.24137931,5.37188636 3.24137931,8 C3.24137931,10.6281136 5.37188636,12.7586207 8,12.7586207 Z" id="Oval-3" fill="#FFFFFF" fill-rule="nonzero"></path>
                    <path d="M8.9377014,5.88813559 L7.19119227,5.88813559 L7.19119227,5.19661017 L10.8646617,5.19661017 L10.8646617,5.88813559 L9.62083781,5.88813559 L9.62083781,7.56271186 L10.7744361,7.56271186 L10.7744361,8.22033898 L9.62083781,8.22033898 L9.62083781,10.3084746 L11,10.3084746 L11,11 L6.99785177,11 L6.99785177,10.3084746 L7.58431794,10.3084746 L7.58431794,6.87118644 L8.24167562,6.87118644 L8.24167562,10.3084746 L8.9377014,10.3084746 L8.9377014,5.88813559 Z M5.92158969,5 C6.32116004,5.33220339 6.65628357,5.65762712 6.93984962,5.98305085 L6.48227712,6.4779661 C6.23737916,6.15932203 5.89581096,5.82033898 5.45112782,5.46779661 L5.92158969,5 Z M5,6.95254237 L6.51450054,6.95254237 L6.51450054,9.68474576 C6.6820623,9.5220339 6.85606874,9.35254237 7.03651987,9.16271186 L7.21052632,9.90847458 C6.81740064,10.3016949 6.39849624,10.6610169 5.96025779,10.979661 L5.70247046,10.3355932 C5.81847476,10.240678 5.87647691,10.1186441 5.87647691,9.96949153 L5.87647691,7.63050847 L5,7.63050847 L5,6.95254237 Z" id="证" fill="#FFFFFF"></path>
                </g>
            </g>
        </g>
    </g>
</svg>

<svg width="60" height="60" xmlns="http://www.w3.org/2000/svg" xmlns:xlink="http://www.w3.org/1999/xlink"><defs><path d="M27.69.52H3.183C1.944.52.936 1.592.936 2.91v19.218c0 1.319 1.008 2.392 2.247 2.392H27.69c1.239 0 2.246-1.073 2.246-2.392V2.911c0-1.319-1.007-2.391-2.246-2.391zm.43 21.608c0 .253-.193.458-.43.458H3.183c-.238 0-.431-.205-.431-.458V2.911c0-.253.193-.458.43-.458H27.69c.237 0 .43.205.43.458v19.217z" id="a"/><path d="M18.934 12.563h3.569a.878.878 0 1 0 0-1.756h-3.569a.878.878 0 1 0 0 1.756zm5.588-5.48h-5.588a.878.878 0 1 0 0 1.757h5.588a.878.878 0 1 0 0-1.756zm0 7.705h-5.588a.878.878 0 1 0 0 1.756h5.588a.878.878 0 1 0 0-1.756zm-9.62-3.14h.001a.878.878 0 0 0 .001-1.757l-2.028-.002 2.27-2.704a.878.878 0 1 0-1.344-1.13L11.11 9.262 8.418 6.055a.879.879 0 0 0-1.345 1.13l2.268 2.702-2.14-.002h-.002a.878.878 0 0 0 0 1.756l2.976.003-.001 1.239-2.974-.002a.878.878 0 0 0-.002 1.756l2.974.002-.002 2.286c0 .485.392.878.877.879h.001a.879.879 0 0 0 .878-.877l.003-2.286 2.973.002h.001a.878.878 0 0 0 .001-1.756l-2.974-.003.001-1.239 2.971.002z" id="b"/></defs><g fill="none" fill-rule="evenodd"><circle fill="#05DCAC" cx="30" cy="30" r="30"/><g fill-rule="nonzero"><g transform="translate(13 17)"><use fill="#FFF" fill-rule="evenodd" xlink:href="#a"/><path stroke="#05DCAC" stroke-width=".1" d="M27.69.57H3.183C1.973.57.986 1.62.986 2.91v19.218c0 1.292.986 2.342 2.197 2.342H27.69c1.21 0 2.196-1.05 2.196-2.342V2.911C29.886 1.619 28.9.57 27.69.57h0zm.48 21.558h0c0 .28-.215.508-.48.508H3.183a.495.495 0 0 1-.481-.508V2.911c0-.28.215-.508.48-.508H27.69c.265 0 .48.229.48.508v19.217z"/></g><g transform="translate(13 17)"><use fill="#FFF" fill-rule="evenodd" xlink:href="#b"/><path stroke="#05DCAC" stroke-width=".2" d="M18.934 12.463h3.569a.778.778 0 1 0 0-1.556h-3.569a.778.778 0 1 0 0 1.556zm5.588-5.28h-5.588a.778.778 0 1 0 0 1.557h5.588a.778.778 0 1 0 0-1.556zm0 7.705h-5.588a.778.778 0 1 0 0 1.556h5.588a.778.778 0 1 0 0-1.556zm-9.62-3.34h0zm0 0h.001a.778.778 0 0 0 .001-1.557l-2.028-.002-.076-.164 2.27-2.705a.778.778 0 1 0-1.191-1l-2.692 3.206h-.154L8.341 6.12A.779.779 0 0 0 7.15 7.12l2.268 2.702-.077.165-2.14-.002h-.002a.778.778 0 0 0 0 1.556l2.976.003.1.1-.001 1.24-.1.099-2.974-.002h0a.778.778 0 0 0-.002 1.556l2.974.002.1.1-.002 2.286c0 .43.347.779.777.779h.001c.43 0 .778-.348.778-.778l.003-2.285.1-.1 2.973.002h.001a.778.778 0 0 0 .001-1.556l-2.974-.003-.1-.1.001-1.239.1-.1 2.971.002h0z"/></g></g><g transform="translate(32 29)"><circle fill="#05DCAC" cx="7.5" cy="7.5" r="7.5"/><path d="M8 14A6 6 0 1 1 8 2a6 6 0 0 1 0 12zm0-1.241A4.759 4.759 0 1 0 8 3.24a4.759 4.759 0 0 0 0 9.518z" fill="#FFF" fill-rule="nonzero"/><path d="M8.938 5.888H7.19v-.691h3.674v.691H9.62v1.675h1.153v.657H9.621v2.088H11V11H6.998v-.692h.586V6.871h.658v3.437h.696v-4.42zM5.922 5c.4.332.734.658 1.018.983l-.458.495a5.986 5.986 0 0 0-1.03-1.01L5.921 5zM5 6.953h1.515v2.732c.167-.163.341-.332.522-.522l.174.745c-.394.394-.813.753-1.25 1.072l-.259-.644a.452.452 0 0 0 .174-.367V7.631H5v-.678z" fill="#FFF"/></g></g></svg>
